X:4667
T:Eavesdropper, The
S:FJ
R:Jig
O:Ireland
M:6/8
K:G
E|\
DBB {c}BAG|Bdd {e}dBG|cde dBG|BAA ~AGE|\
DBB {c}BAG|Bdd {e}dBG|
cde dBA|BGF G2 ::\
d|\
g3 afd|efg dBG|
cde dBG|BAA A2d|\
gab afd|efg dBG|cde dBA|BGF G2:|
